X:0602
T:The Edinburgh Volunteers
P:The Edinburgh Volunteers
C:Cooke's Selection of the Present Favourite Country Dances 1796
R:Strathspey (8x24)
B:RSCDS 6-2
Z:Anselm Lingnau <anselm@strathspey.org>
M:C
L:1/8
K:Gm
F|"Bb"B/c/d c>B B>A G>F|"F"C>F A>c f>c B>A|\
  "Gm"G>A B>c "Cm"e>d c>B|"Dm"A>f d/c/B/A/ "Gm"B<G G>^f|
  "Gm"g>d b>g "F"f>g f>e|"Bb"d>b d>B "F"c>a c>A|\
  "Gm"G>A B>d g>a b>g|"Dm"f>d d/c/B/A/ "Gm"B<G G>A|
  "Gm"B2 G>B D>G B,>G|"F"A2 F>A C>F A,>F|\
  "Gm"B2 G>B D>G B,>G|"D"D>^F A>c "Gm"B<G G>A|
  "Gm"B/A/B D>G B,>G D>G|"F"A/G/A C>F A,>F C>A|\
  "Gm"B/A/B D>G B,>D G>B|"D"D>^F A>c "Gm"B<G G>^f|
  "Gm"g2 d>g B>g d>=e|"F"f2 c>f A>f c>^f|\
  "Gm"g2 d>g B>g d>g|"Dm"f>d d/c/B/A/ "Gm"B<G G>^f|
  "Gm"g/f/g d>g B>g d>=e|"F"f/=e/f c>f A>f c>^f|\
  "Gm"B>d g>b "F"A>c f>a|"Dm"D>d d/c/B/A/ "Gm"B<G G|]

